X: 7236
T: Clancy's
R: jig
M: 6/8
K: Edorian
|:G2 e dBd|gfg afd|e/f/ge dBG|A^GA B=GE|
G2 e dBd|gfg afd|e/f/ge dBA|1 Bee edB:|2 Bee e2||
|:f|gbe gbe|gbb bag|fad fad|faa agf|
eBe gfg|baf gef|gfe dBA|1 Bee e2:|2 Bee edB||

